!!!OTL: My Bonnie Lies Over the Ocean
!!!COM: unknown
!!!ODT: unknown
!!!YOR: The Folksong Fake Book
!!!YOY: 2000
!!!AST: Children's song
!!!YEC: Brian Luke, 2001
**kern	**harm
*k[f#]	*k[f#]
*M3/4	*M3/4
*G:	*G:
*>A	*>A
4d	.
=1	=1
4b	I
4a	.
4g	.
=2	=2
4a	IV
4g	.
4e	.
=3	=3
4d	I
[2B	.
=4	=4
2B]	.
4d	.
=5	=5
4b	.
4a	.
4g	.
=6	=6
4g	V7/V
4f#	.
4g	.
=7	=7
[2.a	V7
=8	=8
2a]	.
4d	.
=9	=9
4b	I
4a	.
4g	.
=10	=10
4a	IV
4g	.
4e	.
=11	=11
4d	I
[2B	.
=12	=12
4B]	.
4r	.
4d	.
=13	=13
4e	IV
4a	.
4g	.
=14	=14
4f#	V7
4e	.
4f#	.
=15	=15
[2.g	I;
=16	=16
2g]	.
4r	.
*>B	*>B
=17	=17
2.d	I
=18	=18
2.g	.
=19	=19
2.e	IV
=20	=20
2.a	V7/V
=21	=21
4f#	V7
4f#	.
4f#	.
=22	=22
4f#	.
4e	.
4f#	.
=23	=23
2g	I;
4a	.
=24	=24
2.b	.
=25	=25
2.d	I
=26	=26
2.g	V7
=27	=27
2.e	IV
=28	=28
2a	V7/V
4g	.
=29	=29
4f#	V7
4f#	.
4f#	.
=30	=30
4f#	.
4e	.
4f#	.
=31	=31
[2.g	I;
=32	=32
2g]	.
*-	*-
